Newaita-dark/apps/16/jgray.svg

<svg height="16" viewBox="0 0 16 16" width="16" xmlns="http://www.w3.org/2000/svg" xmlns:xlink="http://www.w3.org/1999/xlink"><linearGradient id="a" gradientUnits="userSpaceOnUse" x1="6.780599" x2="6.780599" y1="14.0169669688" y2="14.67848850002"><stop offset="0" stop-opacity=".27451"/><stop offset="1" stop-opacity="0"/></linearGradient><linearGradient id="b"><stop offset="0" stop-opacity=".313726"/><stop offset=".222222" stop-opacity=".27451"/><stop offset="1" stop-opacity="0"/></linearGradient><radialGradient id="c" cx="450.908936" cy="189.579361" gradientTransform="matrix(.00000009 -.0390662 -.0703192 -.00000005 21.600054 31.797667)" gradientUnits="userSpaceOnUse" r="21.166656" xlink:href="#b"/><radialGradient id="d" cx="450.908936" cy="189.579361" gradientTransform="matrix(-.00000009 .0390662 .0703192 .00000005 -5.723537 -3.76374)" gradientUnits="userSpaceOnUse" r="21.166656" xlink:href="#b"/><radialGradient id="e" cx="450.908936" cy="189.579361" gradientTransform="matrix(-.00000009 -.0390662 .0703192 -.00000005 -5.723537 31.797667)" gradientUnits="userSpaceOnUse" r="21.166656" xlink:href="#b"/><radialGradient id="f" cx="450.908936" cy="189.579361" gradientTransform="matrix(.00000009 .0390662 -.0703192 .00000005 21.600053 -3.763742)" gradientUnits="userSpaceOnUse" r="21.166656" xlink:href="#b"/><linearGradient id="g" gradientUnits="userSpaceOnUse" x1="7.938262" x2="7.9382624688" y1="16.001533" y2=".125009"><stop offset="0" stop-color="#757575"/><stop offset="1" stop-color="#9e9e9e"/></linearGradient><path d="m7.441406 13.769531h.992188v.910157h-.992188zm0 0" fill="url(#a)"/><path d="m8.433594 14.015625h1.324218v-.660156h-1.324218zm0 0" fill="url(#c)"/><path d="m7.441406 14.015625h-1.324218v.664063h1.324218zm0 0" fill="url(#d)"/><path d="m7.441406 14.015625h-1.324218v-.660156h1.324218zm0 0" fill="url(#e)"/><path d="m8.433594 14.015625h1.324218v.664063h-1.324218zm0 0" fill="url(#f)"/><path d="m6.613281 1.449219v1.984375c.203125.039062 1.289063-.011719 1.652344-.007813.5.007813.335937.503907.335937.503907s.03125.804687.03125 3.742187c0 4.914063.066407 4.785156-1.472656 4.78125-1.3125 0-1.574218-.339844-.933594-1.050781.980469-1.367188-.214843-2.566406-1.597656-2.675782-1.320312 0-2.644531 0-2.617187 1.992188-.027344 3.296875 3.417969 3.277344 5.1875 3.304688 2.0625-.007813 3.792969-.335938 4.707031-2.320313.324219-.839844.359375-7.632813.359375-7.632813-.027344.023438-.027344-.636718.304687-.636718h1.320313l.019531-1.984375zm0 0" fill="url(#g)"/><path d="m6.613281 1.449219v.164062h7.292969l.003906-.164062zm2.007813 2.390625c-.007813.054687-.019532.089844-.019532.089844s0 .046874.003907.148437c.007812-.039063.03125-.136719.015625-.238281zm3.640625.226562c-.011719.097656-.007813.171875 0 .171875.003906-.066406.003906-.167969.003906-.167969-.003906 0-.003906 0-.003906-.003906zm-7.632813 4.660156c-1.320312 0-2.644531 0-2.617187 1.992188v.050781c.023437-1.878906 1.320312-1.878906 2.617187-1.878906 1 .078125 1.898438.726563 1.953125 1.597656.058594-.953125-.894531-1.679687-1.953125-1.761719zm4.003906.195313c0 3.640625-.078124 3.535156-1.472656 3.53125-.78125 0-1.191406-.121094-1.257812-.367187-.082032.359374.320312.53125 1.257812.535156 1.417969.003906 1.472656.105468 1.472656-3.699219zm0 0" fill="#fff" fill-opacity=".392157"/><path d="m13.910156 1.449219-.019531 1.851562h-1.320313c-.296874 0-.328124.527344-.3125.621094.015626-.1875.085938-.488281.3125-.488281h1.320313zm-5.71875 1.84375c-.421875.003906-1.386718.042969-1.578125.007812v.132813c.203125.039062 1.289063-.011719 1.652344-.007813.257813.003907.339844.136719.355469.265625.019531-.148437-.003906-.394531-.355469-.398437-.019531 0-.046875 0-.074219 0zm.414063.621093c-.003907.007813-.003907.015626-.003907.015626s.03125.804687.03125 3.742187v.863281c0-.308594 0-.640625 0-1 0-2.34375-.019531-3.316406-.027343-3.621094zm3.660156.15625c-.007813.691407-.054687 6.707032-.359375 7.496094-.914062 1.988282-2.644531 2.316406-4.707031 2.324219-1.765625-.03125-5.199219-.007813-5.1875-3.285156v.113281c-.027344 3.296875 3.417969 3.277344 5.1875 3.304688 2.0625-.007813 3.792969-.335938 4.707031-2.320313.324219-.839844.359375-7.632813.359375-7.632813zm-5.683594 6.265626c-.011719.292968-.121093.609374-.355469.933593-.253906.277344-.367187.5-.328124.667969.027343-.144531.136718-.324219.328124-.535156.269532-.375.375-.734375.355469-1.066406zm0 0" fill-opacity=".235294"/><path d="m211.604793-168.629428v63.493936c6.499379 1.249881 41.246061-.374964 52.869951-.249976 15.998472.249976 10.748973 16.123461 10.748973 16.123461s.999905 25.747541.999905 119.738565c0 157.234985 2.124797 153.110379-47.1205 152.985391-41.99599 0-50.37019-10.873962-29.872148-33.621789 31.372005-43.745823-6.874343-82.117159-51.120118-85.616824-42.245966 0-84.616919 0-83.742003 63.743912-.874916 105.489926 109.364556 104.864986 165.984149 105.739903 65.993698-.249977 121.363411-10.748974 150.610618-74.242911 10.374009-26.872433 11.498902-244.226677 11.498902-244.226677-.874917.749928-.874917-20.373055 9.749069-20.373055h42.245965l.624941-63.493936zm0 0" fill="none" stroke="#212121" stroke-width="3" transform="matrix(.031253 0 0 .031253 0 6.719392)"/></svg>

<?xml version="1.0" encoding="UTF-8"?>
<svg xmlns="http://www.w3.org/2000/svg" xmlns:xlink="http://www.w3.org/1999/xlink" width="16px" height="16px" viewBox="0 0 16 16" version="1.1">
<defs>
<linearGradient id="linear0" gradientUnits="userSpaceOnUse" x1="254" y1="233.500015" x2="254" y2="254.666672" gradientTransform="matrix(0.031253,0,0,0.031253,-1.157663,6.719391)">
<stop offset="0" style="stop-color:rgb(0%,0%,0%);stop-opacity:0.27451;"/>
<stop offset="1" style="stop-color:rgb(0%,0%,0%);stop-opacity:0;"/>
</linearGradient>
<radialGradient id="radial0" gradientUnits="userSpaceOnUse" cx="450.908936" cy="189.579361" fx="450.908936" fy="189.579361" r="21.166656" gradientTransform="matrix(0.0000000870852,-0.0390662,-0.0703192,-0.0000000507693,21.600054,31.797667)">
<stop offset="0" style="stop-color:rgb(0%,0%,0%);stop-opacity:0.313726;"/>
<stop offset="0.222222" style="stop-color:rgb(0%,0%,0%);stop-opacity:0.27451;"/>
<stop offset="1" style="stop-color:rgb(0%,0%,0%);stop-opacity:0;"/>
</radialGradient>
<radialGradient id="radial1" gradientUnits="userSpaceOnUse" cx="450.908936" cy="189.579361" fx="450.908936" fy="189.579361" r="21.166656" gradientTransform="matrix(-0.0000000870852,0.0390662,0.0703192,0.0000000507693,-5.723537,-3.76374)">
<stop offset="0" style="stop-color:rgb(0%,0%,0%);stop-opacity:0.313726;"/>
<stop offset="0.222222" style="stop-color:rgb(0%,0%,0%);stop-opacity:0.27451;"/>
<stop offset="1" style="stop-color:rgb(0%,0%,0%);stop-opacity:0;"/>
</radialGradient>
<radialGradient id="radial2" gradientUnits="userSpaceOnUse" cx="450.908936" cy="189.579361" fx="450.908936" fy="189.579361" r="21.166656" gradientTransform="matrix(-0.0000000870852,-0.0390662,0.0703192,-0.0000000507693,-5.723537,31.797667)">
<stop offset="0" style="stop-color:rgb(0%,0%,0%);stop-opacity:0.313726;"/>
<stop offset="0.222222" style="stop-color:rgb(0%,0%,0%);stop-opacity:0.27451;"/>
<stop offset="1" style="stop-color:rgb(0%,0%,0%);stop-opacity:0;"/>
</radialGradient>
<radialGradient id="radial3" gradientUnits="userSpaceOnUse" cx="450.908936" cy="189.579361" fx="450.908936" fy="189.579361" r="21.166656" gradientTransform="matrix(0.0000000870852,0.0390662,-0.0703192,0.0000000507693,21.600053,-3.763742)">
<stop offset="0" style="stop-color:rgb(0%,0%,0%);stop-opacity:0.313726;"/>
<stop offset="0.222222" style="stop-color:rgb(0%,0%,0%);stop-opacity:0.27451;"/>
<stop offset="1" style="stop-color:rgb(0%,0%,0%);stop-opacity:0;"/>
</radialGradient>
<linearGradient id="linear1" gradientUnits="userSpaceOnUse" x1="254" y1="297" x2="254.000015" y2="-211" gradientTransform="matrix(0.031253,0,0,0.031253,0,6.719392)">
<stop offset="0" style="stop-color:rgb(45.882353%,45.882353%,45.882353%);stop-opacity:1;"/>
<stop offset="1" style="stop-color:rgb(61.960787%,61.960787%,61.960787%);stop-opacity:1;"/>
</linearGradient>
</defs>
<g id="surface1">
<path style=" stroke:none;fill-rule:nonzero;fill:url(#linear0);" d="M 7.441406 13.769531 L 8.433594 13.769531 L 8.433594 14.679688 L 7.441406 14.679688 Z M 7.441406 13.769531 "/>
<path style=" stroke:none;fill-rule:nonzero;fill:url(#radial0);" d="M 8.433594 14.015625 L 9.757812 14.015625 L 9.757812 13.355469 L 8.433594 13.355469 Z M 8.433594 14.015625 "/>
<path style=" stroke:none;fill-rule:nonzero;fill:url(#radial1);" d="M 7.441406 14.015625 L 6.117188 14.015625 L 6.117188 14.679688 L 7.441406 14.679688 Z M 7.441406 14.015625 "/>
<path style=" stroke:none;fill-rule:nonzero;fill:url(#radial2);" d="M 7.441406 14.015625 L 6.117188 14.015625 L 6.117188 13.355469 L 7.441406 13.355469 Z M 7.441406 14.015625 "/>
<path style=" stroke:none;fill-rule:nonzero;fill:url(#radial3);" d="M 8.433594 14.015625 L 9.757812 14.015625 L 9.757812 14.679688 L 8.433594 14.679688 Z M 8.433594 14.015625 "/>
<path style=" stroke:none;fill-rule:nonzero;fill:url(#linear1);" d="M 6.613281 1.449219 L 6.613281 3.433594 C 6.816406 3.472656 7.902344 3.421875 8.265625 3.425781 C 8.765625 3.433594 8.601562 3.929688 8.601562 3.929688 C 8.601562 3.929688 8.632812 4.734375 8.632812 7.671875 C 8.632812 12.585938 8.699219 12.457031 7.160156 12.453125 C 5.847656 12.453125 5.585938 12.113281 6.226562 11.402344 C 7.207031 10.035156 6.011719 8.835938 4.628906 8.726562 C 3.308594 8.726562 1.984375 8.726562 2.011719 10.71875 C 1.984375 14.015625 5.429688 13.996094 7.199219 14.023438 C 9.261719 14.015625 10.992188 13.6875 11.90625 11.703125 C 12.230469 10.863281 12.265625 4.070312 12.265625 4.070312 C 12.238281 4.09375 12.238281 3.433594 12.570312 3.433594 L 13.890625 3.433594 L 13.910156 1.449219 Z M 6.613281 1.449219 "/>
<path style=" stroke:none;fill-rule:nonzero;fill:rgb(100%,100%,100%);fill-opacity:0.392157;" d="M 6.613281 1.449219 L 6.613281 1.613281 L 13.90625 1.613281 L 13.910156 1.449219 Z M 8.621094 3.839844 C 8.613281 3.894531 8.601562 3.929688 8.601562 3.929688 C 8.601562 3.929688 8.601562 3.976562 8.605469 4.078125 C 8.613281 4.039062 8.636719 3.941406 8.621094 3.839844 Z M 12.261719 4.066406 C 12.25 4.164062 12.253906 4.238281 12.261719 4.238281 C 12.265625 4.171875 12.265625 4.070312 12.265625 4.070312 C 12.261719 4.070312 12.261719 4.070312 12.261719 4.066406 Z M 4.628906 8.726562 C 3.308594 8.726562 1.984375 8.726562 2.011719 10.71875 C 2.011719 10.734375 2.011719 10.753906 2.011719 10.769531 C 2.035156 8.890625 3.332031 8.890625 4.628906 8.890625 C 5.628906 8.96875 6.527344 9.617188 6.582031 10.488281 C 6.640625 9.535156 5.6875 8.808594 4.628906 8.726562 Z M 8.632812 8.921875 C 8.632812 12.5625 8.554688 12.457031 7.160156 12.453125 C 6.378906 12.453125 5.96875 12.332031 5.902344 12.085938 C 5.820312 12.445312 6.222656 12.617188 7.160156 12.621094 C 8.578125 12.625 8.632812 12.726562 8.632812 8.921875 Z M 8.632812 8.921875 "/>
<path style=" stroke:none;fill-rule:nonzero;fill:rgb(0%,0%,0%);fill-opacity:0.235294;" d="M 13.910156 1.449219 L 13.890625 3.300781 L 12.570312 3.300781 C 12.273438 3.300781 12.242188 3.828125 12.257812 3.921875 C 12.273438 3.734375 12.34375 3.433594 12.570312 3.433594 L 13.890625 3.433594 Z M 8.191406 3.292969 C 7.769531 3.296875 6.804688 3.335938 6.613281 3.300781 L 6.613281 3.433594 C 6.816406 3.472656 7.902344 3.421875 8.265625 3.425781 C 8.523438 3.429688 8.605469 3.5625 8.621094 3.691406 C 8.640625 3.542969 8.617188 3.296875 8.265625 3.292969 C 8.246094 3.292969 8.21875 3.292969 8.191406 3.292969 Z M 8.605469 3.914062 C 8.601562 3.921875 8.601562 3.929688 8.601562 3.929688 C 8.601562 3.929688 8.632812 4.734375 8.632812 7.671875 C 8.632812 7.976562 8.632812 8.265625 8.632812 8.535156 C 8.632812 8.226562 8.632812 7.894531 8.632812 7.535156 C 8.632812 5.191406 8.613281 4.21875 8.605469 3.914062 Z M 12.265625 4.070312 C 12.257812 4.761719 12.210938 10.777344 11.90625 11.566406 C 10.992188 13.554688 9.261719 13.882812 7.199219 13.890625 C 5.433594 13.859375 2 13.882812 2.011719 10.605469 C 2.011719 10.640625 2.011719 10.679688 2.011719 10.71875 C 1.984375 14.015625 5.429688 13.996094 7.199219 14.023438 C 9.261719 14.015625 10.992188 13.6875 11.90625 11.703125 C 12.230469 10.863281 12.265625 4.070312 12.265625 4.070312 Z M 6.582031 10.335938 C 6.570312 10.628906 6.460938 10.945312 6.226562 11.269531 C 5.972656 11.546875 5.859375 11.769531 5.898438 11.9375 C 5.925781 11.792969 6.035156 11.613281 6.226562 11.402344 C 6.496094 11.027344 6.601562 10.667969 6.582031 10.335938 Z M 6.582031 10.335938 "/>
<path style="fill:none;stroke-width:3;stroke-linecap:butt;stroke-linejoin:miter;stroke:rgb(12.941177%,12.941177%,12.941177%);stroke-opacity:1;stroke-miterlimit:4;" d="M 211.604793 -168.629428 L 211.604793 -105.135492 C 218.104172 -103.885611 252.850854 -105.510456 264.474744 -105.385468 C 280.473216 -105.135492 275.223717 -89.262007 275.223717 -89.262007 C 275.223717 -89.262007 276.223622 -63.514466 276.223622 30.476558 C 276.223622 187.711543 278.348419 183.586937 229.103122 183.461949 C 187.107132 183.461949 178.732932 172.587987 199.230974 149.84016 C 230.602979 106.094337 192.356631 67.723001 148.110856 64.223336 C 105.86489 64.223336 63.493937 64.223336 64.368853 127.967248 C 63.493937 233.457174 173.733409 232.832234 230.353002 233.707151 C 296.3467 233.457174 351.716413 222.958177 380.96362 159.46424 C 391.337629 132.591807 392.462522 -84.762437 392.462522 -84.762437 C 391.587605 -84.012509 391.587605 -105.135492 402.211591 -105.135492 L 444.457556 -105.135492 L 445.082497 -168.629428 Z M 211.604793 -168.629428 " transform="matrix(0.031253,0,0,0.031253,0,6.719392)"/>
</g>
</svg>
